icon/mi/convenience.svg

<?xml version="1.0" encoding="UTF-8"?>
<svg id="convenience" xmlns="http://www.w3.org/2000/svg" viewBox="0 0 15 15" height="1em" width="1em">
  <path d="M2.9982,3.0687s.1875-1.062,1-1.062H5.0043V1.7276a.5.5,0,0,1,.5-.5H9.4882a.5.5,0,0,1,.5.5v.2791h1.01a.8324.8324,0,0,1,.6373.2937,1.7589,1.7589,0,0,1,.3627.7683s.3108,1.5719.5921,2.9181h-.938L11,3,3.982,2.9956,3.3336,5.9868H2.382Zm11,4.9144a1,1,0,0,1-.9992,1l-1.0008,3.973s-.1875,1.0417-1,1.0417h-7c-.8125,0-1-1.0417-1-1.0417L1.9822,8.98a.9985.9985,0,0,1,.016-1.9968h11A1,1,0,0,1,13.9982,7.9831ZM5.0327,12.13,5.03,11.0051,4.6392,9.4686a.5373.5373,0,1,0-1.0649.1445L3.78,11.0075l.1874,1.2672A.5373.5373,0,1,0,5.0327,12.13Zm2-2.5967A.5332.5332,0,0,0,6.4994,9l-.0039.0008L6.4886,9a.4992.4992,0,0,0-.3575.1509.529.529,0,0,0-.1648.3828v2.68a.5332.5332,0,1,0,1.0663,0Zm1.998,0A.5314.5314,0,0,0,8.694,9.04a.4992.4992,0,0,0-.393,0,.5312.5312,0,0,0-.3366.4934v2.68a.5331.5331,0,1,0,1.0662,0Zm2.3857.08a.5373.5373,0,1,0-1.0649-.1445L9.96,10.9938,9.9579,12.13a.5373.5373,0,1,0,1.0649.1446Z"/>
</svg>

<svg xmlns="http://www.w3.org/2000/svg" width="15" height="15"><path d="M2.998 3.069s.188-1.062 1-1.062h1.006v-.28a.5.5 0 0 1 .5-.5h3.984a.5.5 0 0 1 .5.5v.28h1.01a.832.832 0 0 1 .638.293 1.759 1.759 0 0 1 .362.769s.311 1.572.592 2.918h-.938L11 3l-7.018-.004-.648 2.99h-.952Zm11 4.914a1 1 0 0 1-.999 1l-1 3.973s-.188 1.042-1 1.042h-7c-.813 0-1-1.042-1-1.042L1.981 8.98a.999.999 0 0 1 .016-1.997h11a1 1 0 0 1 1 1ZM5.033 12.13l-.003-1.125-.39-1.536a.537.537 0 1 0-1.066.144l.206 1.395.187 1.267a.537.537 0 1 0 1.066-.145Zm2-2.597A.533.533 0 0 0 6.499 9h-.01a.5.5 0 0 0-.358.15.529.529 0 0 0-.165.384v2.68a.533.533 0 1 0 1.067 0Zm1.998 0a.531.531 0 0 0-.337-.493.5.5 0 0 0-.393 0 .531.531 0 0 0-.337.493v2.68a.533.533 0 1 0 1.067 0Zm2.385.08a.537.537 0 1 0-1.065-.144l-.391 1.525-.002 1.136a.537.537 0 1 0 1.065.145Z"/></svg>
